X:915
T:Country Bumpkin
A:Wyresdale, Lancashire
B:E and J Winder, 1835-41
L:1/8
M:6/8
O:England
Z:Richard Robinson 
%%TUNEURL: http://www.leeds.ac.uk/music/Info/RRTuneBk/gettune/000005c9.html
%%ID:000005c9
K:G
c3 B3 | ABG FED | G2B BAB | G2B BAB |\
c3 B3 | A2G FED | c2B c2B | A2G FED | g2d edc | B3 G3 ::
gfe dcB | ABG FED | G2B BAB | G2B BAB | \
gfe dcB | ABA FED | g2d edc | B3  G3 ::
cac BgB | ABG FED | G2B BAB | G2B BAB | \
cac BgB | ABA FED | g2d edc | B3  G3 :|
%%newpage
% (page 73 missing)
%page 74
